public/fireball.svg

<svg width="91" height="90" viewBox="0 0 91 90" fill="none" xmlns="http://www.w3.org/2000/svg">
<path d="M70.7109 1.45703C68.5957 2.96264 67.8044 5.54883 67.7549 7.81445C67.6969 10.4778 68.6351 13.3459 69.8906 15.5576C70.1477 16.0104 70.4392 16.4575 70.6875 16.8516C70.9456 17.2611 71.1714 17.6359 71.3545 18.0137C72.3552 20.0779 73.1202 23.44 72.9414 25.6299C72.9006 26.1284 72.7627 26.6243 72.5742 27.21C72.3965 27.7624 72.1561 28.4423 72.0146 29.1436L71.4014 32.1865L73.8262 30.2471C74.5641 29.6567 75.0532 29.0076 75.46 28.4014C75.8881 27.7632 76.1672 27.2739 76.5977 26.7383C78.3092 24.6087 80.8681 23.5541 83.7051 23.2422C84.5139 23.1533 85.172 23.0873 85.8311 23.1562C87.0501 23.2837 88.0859 23.7653 88.9111 24.5938C88.7259 24.5742 88.5352 24.5593 88.3467 24.5605C87.2259 24.5678 86.2887 25.0509 85.1426 26.2266V26.2275C83.5844 27.8266 83.2608 30.0768 83.3018 31.8926C83.3412 33.6405 83.7688 35.4431 83.9805 36.8965C84.2039 38.4306 84.2459 39.8107 83.7285 41.209C83.5393 41.7195 83.3065 42.1815 83.0879 42.4102V42.4111C82.8911 42.6173 82.6685 42.7789 82.2998 43.0869C81.9844 43.3504 81.5657 43.7222 81.2725 44.2197L81.0947 44.5215L81.1191 44.8711L81.1299 45.0332L81.1719 45.6348L81.6953 45.9336C81.9786 46.0958 82.2658 46.1871 82.4648 46.2461C82.7031 46.3167 82.8072 46.3417 82.9258 46.3877C84.1703 46.8702 84.8867 47.5357 85.1914 48.668C85.5119 49.8589 85.4607 51.2846 85.3115 52.6953C85.2622 53.16 85.1882 53.6151 85.1113 54.1172C85.0367 54.6046 84.9613 55.1302 84.9307 55.6641C84.8681 56.7539 84.9876 57.9322 85.6738 59.127C86.0769 59.8287 86.6384 60.4742 87.4268 60.9209H87.4277C87.6139 61.0263 87.8038 61.1155 87.9912 61.1943C87.5922 61.2628 87.1408 61.2855 86.6035 61.2607C86.0826 61.2368 85.5545 61.1766 84.9893 61.1084C84.4364 61.0416 83.839 60.9654 83.2383 60.9229L82.2461 60.8525L82.0518 61.8271C81.3731 65.2296 80.5815 67.503 79.1133 70.6816C78.3092 72.4226 77.4967 74.1305 76.498 75.6592C74.4415 78.8062 71.2692 81.5059 68.0332 83.6523C67.0097 84.331 65.9056 84.7557 64.6055 85.3174C63.3771 85.8478 62.2463 86.3845 61.0859 86.8398L60.5859 87.0293C59.3611 87.4797 57.9917 87.8203 56.6348 88.165C56.1875 88.2788 55.6089 88.3472 54.8867 88.457C54.3311 88.5415 53.6532 88.6557 53.0811 88.8721H45.8418C45.2344 88.6466 44.4843 88.5258 43.8555 88.4404C43.0427 88.3301 42.3902 88.2726 41.8711 88.1787H41.8701C40.4613 87.9209 39.0853 87.5101 37.7666 86.9541L37.7607 86.9521L36.4795 86.4121C33.5792 85.1698 31.2934 84.0347 29.2559 82.6035C26.9435 80.9792 24.9082 78.9419 22.6855 75.8584C21.6928 74.4812 20.7277 73.2063 20.0488 71.8311C19.6144 70.9507 19.2588 70.0184 18.9043 69.0371C18.556 68.073 18.2008 67.0381 17.7891 66.041L17.2822 64.8125L16.1523 65.5127C15.4321 65.9591 14.5791 66.294 13.6973 66.54H13.6963C11.12 67.2593 7.96499 67.2321 5.78418 65.9844H5.78516C5.1119 65.5991 4.33871 64.8296 3.65625 63.874C3.43834 63.5689 3.23932 63.2567 3.06152 62.9482C3.27522 63.0372 3.48972 63.1132 3.7002 63.1738L3.96484 63.2441C5.73705 63.6668 7.92682 62.9605 8.99121 61.3311C9.54291 60.4865 9.77938 59.3992 9.96582 58.7969C10.598 56.7549 11.0329 54.7391 11.9561 53.1748C12.9829 51.4348 14.3027 50.4415 16.1816 49.3057H16.1826C16.428 49.1571 16.9953 48.7934 17.1758 48.0703L17.3213 47.4873L16.9189 47.042C16.7128 46.8132 16.4684 46.6985 16.3232 46.6416C16.1617 46.5783 15.998 46.5389 15.8584 46.5117C15.579 46.4574 15.2678 46.4307 14.9971 46.4141C14.724 46.3973 14.4361 46.3878 14.2197 46.3789C14.095 46.3738 14.0015 46.3688 13.9336 46.3643L13.8008 46.3516C11.8117 46.021 10.0412 45.422 8.22461 44.5127C5.58133 43.1896 2.90679 40.1402 1.84961 37.3496C1.69896 36.9519 1.59978 36.5119 1.48828 35.9834C1.39401 35.5365 1.28629 35.0135 1.12793 34.4961V33.2002C1.32505 33.5728 1.55697 33.9392 1.8291 34.2734C2.55494 35.1648 3.49447 35.5604 4.5166 35.6631C5.90434 35.8025 7.88036 35.8856 9.4375 35.3789C11.1604 34.8182 12.6368 33.4731 13.7266 32.6172C16.1238 30.7345 18.5405 29.4662 21.4795 28.9004C23.6173 28.4889 25.4696 28.1771 27.5146 28.292C27.6008 28.2968 28.1086 28.3476 28.4473 28.3506C28.6469 28.3524 28.8882 28.3438 29.1309 28.2979C29.3619 28.2541 29.6894 28.1599 29.9824 27.9248L30.5371 27.4785L30.374 26.7861C30.2888 26.4244 30.0829 26.1637 29.9307 26.0059C29.7693 25.8386 29.585 25.7005 29.417 25.5898C29.0809 25.3686 28.6768 25.1712 28.3086 25.0059C27.9343 24.8379 27.545 24.6811 27.2334 24.5537C26.8904 24.4135 26.6886 24.3266 26.5967 24.2764C23.2911 22.4677 20.5246 19.2448 18.7656 15.8379C17.9868 14.3294 18.1638 12.7565 18.6748 10.9424C19.2513 11.9759 20.0483 13.1085 21.0195 13.8994C22.6038 15.1895 24.846 15.2613 26.7598 15.1045C27.7542 15.023 28.7558 14.8689 29.6641 14.7246C30.5925 14.5771 31.4013 14.4441 32.0859 14.3828C35.2173 14.1027 38.4557 14.6486 40.8232 16.4775C41.1582 16.7362 41.4726 17.0462 41.8359 17.4131C42.183 17.7636 42.5846 18.1771 43.0312 18.5459L45.3916 20.4941L44.8613 17.4795C44.5995 15.9921 44.6516 14.396 44.793 12.6982C44.93 11.0519 45.1614 9.23312 45.1904 7.53711C45.2063 6.62015 45.2041 5.46217 45.0537 4.31641C44.9352 3.41366 44.7156 2.44805 44.293 1.58789C44.8309 1.82964 45.3596 2.04304 45.7695 2.23145C47.0659 2.82714 48.4683 3.64878 49.5176 4.52441C50.4557 5.30744 51.761 6.95992 52.9844 8.82129C54.0475 10.4389 54.9705 12.0936 55.4785 13.2822L55.6699 13.7617C55.7137 13.8808 55.7745 14.0775 55.8623 14.3594C55.945 14.625 56.0446 14.9436 56.1533 15.2578C56.2608 15.5683 56.3862 15.9022 56.5264 16.1963C56.6446 16.4442 56.8514 16.8378 57.1787 17.1064L57.752 17.5781L58.4121 17.2373L58.5225 17.1797L58.9619 16.9531L59.0928 16.4775C59.1908 16.1224 59.2188 15.7821 59.2344 15.5225C59.252 15.2288 59.255 15.0617 59.2803 14.877C59.3929 14.0592 59.5651 13.2197 59.7646 12.3906C60.186 10.6392 61.4001 8.03593 62.4658 6.55078C63.3662 5.29633 65.0426 3.7438 66.3564 2.99707C67.7999 2.17663 69.2479 1.61163 70.7109 1.45703Z" fill="#FCFCFF" stroke="#FCFCFF" stroke-width="2.25652"/>
<path d="M48.1865 28.251C49.4552 28.0767 51.3396 28.0965 52.6396 28.2559C53.3742 28.3459 54.7269 28.6251 56.1055 28.9688C57.4926 29.3145 58.7884 29.6967 59.4365 29.9697C64.2466 31.9964 69.3754 36.5731 72.1963 41.041C72.6809 41.8084 73.0977 42.6394 73.4785 43.5059L73.8486 44.3828C74.3107 45.519 74.7562 46.6067 75.0449 47.6943V47.6953C75.3136 48.7077 75.4391 49.7628 75.5928 50.918V50.9189C76.1866 55.3788 76.0352 59.7957 74.3594 63.8613C73.709 65.439 72.7873 67.3738 71.7236 69.1914C70.6511 71.0242 69.4742 72.6665 68.3291 73.7188C67.0886 74.8587 65.4604 75.7839 63.8359 76.4561C62.2618 77.1073 60.6674 77.7712 59.1436 78.1309C55.1851 79.0645 50.0533 78.4797 46.2832 76.8584C44.4016 76.0491 42.3935 74.504 40.6416 72.6172C38.8924 70.7333 37.4697 68.5851 36.7051 66.6426C36.3767 65.8083 36.1904 64.9112 35.9824 63.9053C35.2183 60.2099 35.2307 56.6408 36.6562 53.2676C37.7048 50.7869 38.7688 49.0068 40.1328 47.6064C41.4917 46.2114 43.2104 45.1292 45.6611 44.1406C48.1209 43.1484 50.1183 43.06 52.6455 43.6865L53.1582 43.8213C53.9589 44.0433 54.7231 44.2667 55.4307 44.5518L55.7305 44.6777C56.9571 45.2168 58.2798 46.2654 59.4453 47.5635C60.607 48.8574 61.5416 50.3201 62.04 51.6094C62.5216 52.855 62.7502 54.5763 62.6982 56.3574C62.6463 58.1368 62.3169 59.8542 61.7812 61.0879C60.8392 63.2561 59.2085 64.6666 56.9521 65.5439C55.0064 66.3004 53.0142 66.357 51.21 65.5312C49.6903 64.8357 48.5921 63.6884 47.9395 62.1348L47.8154 61.8193C47.5234 61.0276 47.3135 60.0303 47.2715 59.0342C47.2291 58.0285 47.3613 57.1115 47.6738 56.4277C48.0515 55.6019 48.6858 54.9125 49.3848 54.6074L49.5254 54.5518C49.8526 54.4348 50.1995 54.4479 50.6133 54.623L50.7949 54.708C51.3182 54.9762 51.6726 55.3845 51.8232 55.8867C52.0617 56.6811 51.9105 57.2813 51.416 58.2266L50.2002 60.5498L52.7236 59.835C53.5088 59.6125 54.664 59.3065 55.4307 58.166C56.0674 57.2193 56.2382 55.9625 56.0859 54.9355L56.0518 54.7334L55.9805 54.4033C55.5888 52.7337 54.6458 50.7529 53.0605 49.6738C51.3985 48.5431 49.3748 48.2561 47.5049 48.6426C45.1546 49.1287 43.3889 50.6802 42.1875 52.5273V52.5283C40.2801 55.462 39.9941 58.75 40.6572 61.9893C41.4705 65.9594 43.3365 68.7708 46.7246 71.0127C50.0986 73.2452 54.0671 74.0288 58.0361 73.1826C59.1871 72.9373 60.5286 72.3962 61.7598 71.7412C62.9896 71.0869 64.1965 70.2721 65.0469 69.4287C66.0939 68.3903 67.027 66.9797 67.7432 65.8623C70.704 61.2439 70.642 55.5738 69.6182 50.6689L69.6143 50.6494L69.5195 50.2549C69.2908 49.3397 68.9946 48.4607 68.5977 47.5811C66.2781 42.4404 63.0093 38.6297 57.5107 36.5703C51.6851 34.3883 45.5761 34.7366 39.9756 37.3535C34.8306 39.757 30.6288 45.2882 28.7441 50.4766C28.3001 51.699 28.0798 52.9781 27.8643 54.1104C26.7845 59.7819 27.2437 65.4316 29.6826 70.7637C32.1111 76.0724 36.4318 80.8098 41.9707 83.041L42.5107 83.249C43.4192 83.5835 44.4262 83.8236 45.2246 84.0557V84.0547C46.4489 84.4111 47.8252 84.8675 49.2178 85.1152H49.2188C52.2688 85.6575 55.9398 85.5381 59.0107 84.9932L59.6162 84.8779C60.5892 84.6821 61.5492 84.3652 62.3945 84.1064C63.4396 83.7869 64.6673 83.458 65.8066 82.9121C67.16 82.2637 68.4384 81.3641 69.5645 80.6221H69.5654C70.8058 79.8044 72.1192 78.9148 73.2979 77.8604C77.0932 74.4655 79.4182 69.9718 81.2227 65.4346C79.9887 69.7114 78.2311 74.1879 75.5361 77.5557L75.2695 77.8818C73.3056 80.2292 69.7778 82.8185 67.0068 84.2998C64.1171 85.8451 59.5956 87.4435 56.4834 87.7012C51.7363 88.0941 48.4366 87.837 43.8408 86.6211C41.9424 86.1188 40.099 85.5169 38.4062 84.6611C37.4382 84.1716 36.6066 83.5715 35.5557 82.9121C34.3783 82.1733 33.2973 81.5288 32.3135 80.7471L31.8975 80.4033C27.959 76.9821 25.0367 72.518 23.458 67.5088L23.4541 67.499L23.2676 66.9102C22.9071 65.7449 22.6285 64.6407 22.4902 63.4834L22.4336 62.8994C22.2216 60.1256 22.0135 57.2852 22.2021 54.6201C22.6133 48.8108 25.0045 42.5356 28.7354 38.1436C32.0445 34.248 37.6229 30.6669 42.4961 29.209C44.0882 28.7326 45.7038 28.4749 47.3906 28.3193L48.1523 28.2559L48.1865 28.251Z" fill="#633463" stroke="#633463" stroke-width="2.25652"/>
</svg>

<svg width="91" height="90" viewBox="0 0 91 90" fill="none" xmlns="http://www.w3.org/2000/svg"><path d="M70.71 1.457c-2.114 1.506-2.906 4.092-2.955 6.357-.058 2.664.88 5.532 2.136 7.744.257.452.548.9.796 1.294.259.41.484.784.668 1.162 1 2.064 1.765 5.426 1.586 7.616-.04.498-.178.994-.367 1.58-.177.552-.418 1.232-.56 1.934l-.613 3.043 2.425-1.94c.738-.59 1.227-1.24 1.634-1.846.428-.638.707-1.127 1.138-1.663 1.711-2.13 4.27-3.184 7.107-3.496.809-.089 1.467-.155 2.126-.086 1.22.128 2.255.61 3.08 1.438a5 5 0 0 0-.564-.034c-1.121.008-2.058.49-3.204 1.667-1.559 1.6-1.882 3.85-1.841 5.666.04 1.748.467 3.55.678 5.004.224 1.534.266 2.914-.252 4.312-.189.51-.421.972-.64 1.201v.001c-.197.206-.42.368-.788.676-.316.263-.734.635-1.028 1.133l-.177.302.024.35.01.161.043.602.523.299c.284.162.57.253.77.312.238.07.342.096.46.142 1.245.482 1.962 1.148 2.266 2.28.32 1.19.27 2.617.12 4.027-.049.465-.123.92-.2 1.422a17 17 0 0 0-.18 1.547c-.063 1.09.057 2.268.743 3.463.403.702.964 1.347 1.753 1.794q.282.156.564.273c-.399.069-.85.091-1.388.067a22 22 0 0 1-1.614-.153c-.553-.066-1.15-.143-1.75-.185l-.993-.07-.194.974c-.679 3.403-1.47 5.676-2.939 8.855-.804 1.74-1.616 3.448-2.615 4.977-2.056 3.147-5.229 5.847-8.465 7.993-1.023.679-2.127 1.104-3.427 1.665-1.229.53-2.36 1.068-3.52 1.523l-.5.19c-1.225.45-2.594.79-3.951 1.135-.447.114-1.026.182-1.748.292-.556.085-1.234.199-1.806.415h-7.24c-.607-.225-1.357-.346-1.986-.432-.812-.11-1.465-.167-1.984-.261a19.7 19.7 0 0 1-4.104-1.225l-.006-.002-1.282-.54c-2.9-1.242-5.186-2.377-7.223-3.809-2.312-1.624-4.348-3.661-6.57-6.745-.993-1.377-1.958-2.652-2.637-4.027-.435-.88-.79-1.813-1.145-2.794-.348-.964-.703-1.999-1.115-2.996l-.507-1.228-1.13.7c-.72.446-1.573.781-2.455 1.027-2.577.72-5.732.692-7.913-.556h.001c-.673-.385-1.446-1.154-2.129-2.11a11 11 0 0 1-.594-.926q.321.135.638.226l.265.07c1.772.423 3.962-.283 5.026-1.913.552-.845.788-1.932.975-2.534.632-2.042 1.067-4.058 1.99-5.622 1.027-1.74 2.347-2.733 4.226-3.87.246-.148.813-.512.994-1.235l.145-.583-.402-.445a1.6 1.6 0 0 0-.596-.4 2.7 2.7 0 0 0-.465-.13 7 7 0 0 0-.86-.098c-.274-.017-.562-.026-.778-.035q-.187-.007-.286-.015l-.133-.012c-1.99-.331-3.76-.93-5.576-1.84C5.58 43.19 2.907 40.14 1.85 37.35c-.151-.398-.25-.838-.362-1.367-.094-.447-.202-.97-.36-1.487V33.2c.197.373.429.74.701 1.073.726.892 1.665 1.287 2.688 1.39 1.387.14 3.363.223 4.92-.284 1.723-.56 3.2-1.906 4.29-2.762 2.397-1.882 4.814-3.15 7.753-3.717 2.137-.411 3.99-.723 6.035-.608.086.005.594.056.932.059.2.001.441-.007.684-.053a1.9 1.9 0 0 0 .851-.373l.555-.447-.163-.692a1.7 1.7 0 0 0-.443-.78 3 3 0 0 0-.514-.416 8 8 0 0 0-1.108-.584c-.375-.168-.764-.325-1.076-.452a8 8 0 0 1-.636-.278c-3.306-1.808-6.072-5.031-7.831-8.438-.78-1.509-.602-3.081-.091-4.896.576 1.034 1.373 2.166 2.345 2.957 1.584 1.29 3.826 1.362 5.74 1.206.994-.082 1.996-.236 2.904-.38.928-.148 1.737-.28 2.422-.342 3.131-.28 6.37.266 8.737 2.095.335.258.65.568 1.013.935.347.35.749.764 1.195 1.133l2.36 1.948-.53-3.014c-.261-1.488-.21-3.084-.068-4.782.137-1.646.368-3.465.397-5.16.016-.918.014-2.076-.136-3.222-.119-.902-.338-1.868-.761-2.728.538.242 1.067.455 1.477.643 1.296.596 2.698 1.418 3.748 2.293.938.783 2.243 2.436 3.466 4.297 1.063 1.618 1.986 3.273 2.494 4.461l.192.48c.044.119.105.316.192.597.083.266.183.585.291.899.108.31.233.644.373.938.119.248.325.642.653.91l.573.472.66-.34.11-.058.44-.227.13-.476a4.5 4.5 0 0 0 .142-.954c.018-.294.021-.461.046-.646a26 26 0 0 1 .485-2.486c.421-1.752 1.635-4.355 2.7-5.84.901-1.255 2.578-2.807 3.891-3.554 1.444-.82 2.892-1.385 4.355-1.54Z" fill="#FCFCFF" stroke="#FCFCFF" stroke-width="2.257"/><path d="M48.187 28.251c1.268-.174 3.153-.155 4.453.005.734.09 2.087.37 3.465.713 1.388.345 2.683.728 3.332 1 4.81 2.027 9.938 6.604 12.76 11.072.484.767.9 1.598 1.281 2.465l.37.877c.463 1.136.908 2.224 1.197 3.311v.001c.269 1.013.394 2.068.548 3.223.594 4.46.442 8.878-1.234 12.943a45 45 0 0 1-2.635 5.33c-1.073 1.833-2.25 3.475-3.395 4.528-1.24 1.14-2.869 2.065-4.493 2.737-1.574.651-3.169 1.315-4.692 1.675-3.959.933-9.09.349-12.86-1.273-1.882-.809-3.89-2.354-5.642-4.24-1.75-1.885-3.172-4.033-3.937-5.975-.328-.835-.515-1.732-.723-2.738-.764-3.695-.751-7.264.674-10.637 1.049-2.481 2.113-4.261 3.477-5.662 1.359-1.395 3.077-2.477 5.528-3.465 2.46-.993 4.457-1.081 6.984-.454l.513.134c.8.222 1.565.446 2.273.73l.3.127c1.226.539 2.549 1.587 3.714 2.886 1.162 1.293 2.097 2.756 2.595 4.045.482 1.246.71 2.967.658 4.748-.052 1.78-.381 3.497-.917 4.73-.942 2.17-2.572 3.58-4.829 4.457-1.946.756-3.938.813-5.742-.013-1.52-.695-2.618-1.843-3.27-3.396l-.125-.316a9.5 9.5 0 0 1-.543-2.785c-.043-1.005.09-1.922.402-2.606.377-.826 1.012-1.515 1.71-1.82l.141-.056c.328-.117.675-.104 1.088.071l.182.085c.523.268.878.677 1.028 1.179.239.794.087 1.394-.407 2.34L50.2 60.55l2.524-.715c.785-.223 1.94-.529 2.707-1.669.636-.947.807-2.203.655-3.23l-.034-.203-.072-.33c-.391-1.67-1.334-3.65-2.92-4.73-1.662-1.13-3.685-1.417-5.555-1.03-2.35.486-4.116 2.037-5.318 3.884v.001c-1.907 2.934-2.193 6.222-1.53 9.461.814 3.97 2.68 6.782 6.068 9.024 3.374 2.232 7.342 3.016 11.311 2.17 1.151-.246 2.493-.787 3.724-1.442 1.23-.654 2.437-1.469 3.287-2.312 1.047-1.039 1.98-2.45 2.696-3.567 2.961-4.618 2.899-10.288 1.875-15.193l-.004-.02-.095-.394a15.7 15.7 0 0 0-.921-2.674c-2.32-5.14-5.589-8.951-11.087-11.01-5.826-2.183-11.935-1.834-17.535.782-5.145 2.404-9.347 7.935-11.232 13.124-.444 1.222-.664 2.501-.88 3.633-1.08 5.672-.62 11.322 1.819 16.654C32.11 76.072 36.432 80.81 41.97 83.04l.54.208c.908.335 1.915.575 2.714.807v-.001c1.224.356 2.6.813 3.993 1.06 3.05.543 6.722.423 9.793-.122l.605-.115c.973-.196 1.933-.513 2.779-.772 1.045-.32 2.272-.648 3.412-1.194 1.353-.648 2.631-1.548 3.757-2.29h.001c1.24-.818 2.554-1.707 3.733-2.762 3.795-3.394 6.12-7.888 7.925-12.425-1.234 4.276-2.992 8.753-5.687 12.12l-.267.327c-1.963 2.347-5.491 4.936-8.262 6.418-2.89 1.545-7.411 3.144-10.524 3.401-4.747.393-8.046.136-12.642-1.08-1.899-.502-3.742-1.104-5.435-1.96-.968-.49-1.8-1.09-2.85-1.749-1.178-.739-2.259-1.383-3.242-2.165l-.416-.344a28.37 28.37 0 0 1-8.44-12.894l-.004-.01-.186-.589c-.36-1.165-.64-2.27-.778-3.427l-.056-.584c-.212-2.773-.42-5.614-.232-8.279.411-5.81 2.802-12.084 6.533-16.476 3.31-3.896 8.888-7.477 13.761-8.935 1.592-.476 3.208-.734 4.895-.89l.761-.063z" fill="#633463" stroke="#633463" stroke-width="2.257"/></svg>
